X:34
T:Walter Sammon's Grandmother
R:reel
D:Patrick Street 1.
Z:id:hn-reel-34
M:C|
K:D
FAAB A2dB|AFDE FE~E2|FAAB A2dB|AFEG FDD2:|
|:FAdA BAdA|FAdA FE~E2|1 FAdA BAdA|F2EG FDD2:|2 dcBA BcdB|AFEG FDD2||
<end>
<start>
